X:1
T:The Humble Heart
M:4/4
L:1/4
K:C
 z2 E3/2-| ^F/2 G ^F E| G A A/2B/2| A G/2A/2 B| B/2A/2G/2 E/2 D| E z E/2^F/2|\
 G
M:3/4
| G/2^F/2 E G|
M:4/4
 A A/2B/2 A B/2c/2| d B/2A/2 G ^F/2E/2| E z G3/2- A/2| B B/2A/2 G B/2c/2|\
 d d/2e/2 d B/2d/2| e e/2d/2 B/2d/2 d| e z e3/2- d/2|
M:3/4
 e/2d/2B/2 A/2 B| B/2A/2G/2 E/2 D| E2 E/2D/2| B, D ^F/2E/2| D E2| z2 z2|\
 E3/2- ^F/2 G| ^F E G| z2 E3/2-| B,/2 E B, B,| E A A/2B/2| A G/2A/2 B|\
 B/2A/2G/2 E/2 D| E z E/2^F/2| G
M:3/4
| G/2^F/2 E G| D D D| D E E| C C B,| z B,/2D/2 E|
M:3/4
 E/2B,/2 G, B,| A A/2B/2 A| B/2c/2 d B/2A/2| G ^F/2E/2 E| z G3/2- A/2|\
 B B/2A/2 G| B/2c/2 D D| D C B,| E E B,| B, z B,3/2-| D/2 G G/2D/2 B,|\
 G,/2A,/2 d d/2e/2| d B/2d/2 e| e/2d/2B/2 d/2 d| e z e3/2-| d/2
M:3/4
| e/2d/2B/2 A/2 B| B, D G| G/2B/2 cc/2-B/2| G ^F E| z B,2|
M:3/4
 E E G| B/2A/2G/2 E/2 D| E3/2 z/2 E/2D/2|
M:4/4
 B, D ^F/2E/2 D| E2 z2| E C C B,3/2| z/2 B,
M:4/4
| G, B, B, D| E2 z2|
